public/img/icon/general/tg.svg

<svg width="52" height="47" viewBox="0 0 52 47" fill="none" xmlns="http://www.w3.org/2000/svg">
<path d="M39.1806 10.7788L11.546 21.2364C10.0324 21.6721 10.0783 23.1628 11.202 23.5297L18.1279 25.6854L20.7881 33.8038C21.1092 34.6982 21.3844 35.0193 21.9348 35.0422C22.5081 35.0422 22.7374 34.8358 23.3337 34.3084C24.0446 33.6433 25.0996 32.6113 26.7967 30.9601L33.9977 36.2806C35.3278 37.0145 36.291 36.6246 36.6121 35.0422L41.13 12.7052C41.5886 10.7788 40.4649 10.2054 39.1806 10.7788ZM19.2287 25.1809L34.9609 15.3196C35.7406 14.7921 35.97 15.3884 35.626 15.7782L22.554 27.5201L21.8889 33.391L19.2287 25.1809Z" fill="#2963AD"/>
</svg>

<svg width="52" height="47" fill="none" xmlns="http://www.w3.org/2000/svg"><path d="M39.18 10.779 11.547 21.236c-1.514.436-1.468 1.927-.344 2.294l6.926 2.155 2.66 8.119c.321.894.596 1.215 1.147 1.238.573 0 .802-.206 1.399-.734.71-.665 1.766-1.697 3.463-3.348l7.2 5.32c1.33.734 2.294.345 2.615-1.238l4.518-22.337c.459-1.926-.665-2.5-1.95-1.926zM19.23 25.18 34.96 15.32c.78-.528 1.009.068.665.458L22.554 27.52l-.665 5.871-2.66-8.21z" fill="#2963AD"/></svg>
